X: 24695
T: MacLeod's Farewell
R: reel
M: 4/4
K: Dmajor
DE|:F2BF AFEF|D2DE FABd|e2fd efdB|ABde dBAG|
F2BF AFEF|D2DE FABd|e2fd efdB|1 ABde d2DE:|2 ABde d3B||
|:A3f edfd|A3f edfd|ABdA BdAB|dBAF E2DE|
F2BF AFEF|D2DE FABd|e2fd efdB|1 ABde d3B:|2 ABde d4||

